packages/foundations/assets/icons/functional/images/maps/map_pin_16_filled.svg

<svg width="16" height="16" viewBox="0 0 16 16" fill="none" xmlns="http://www.w3.org/2000/svg">
<g clip-path="url(#clip0_2213_5499)">
<path fill-rule="evenodd" clip-rule="evenodd" d="M7.99997 1.49841C10.8191 1.49841 12.8762 3.60639 12.8762 6.3746C12.8762 7.49206 12.3936 8.73647 11.4539 10.0825L8.66029 14.146C8.50791 14.3746 8.27938 14.5016 7.99997 14.5016C7.72056 14.5016 7.49203 14.3746 7.33965 14.146L4.546 10.0825C3.60636 8.71111 3.12378 7.49206 3.12378 6.3746C3.12378 3.68254 5.10473 1.49841 7.99997 1.49841ZM7.99997 4.74921C7.11104 4.74921 6.37457 5.48567 6.37457 6.3746C6.37457 7.26353 7.11104 8 7.99997 8C8.8889 8 9.62537 7.26353 9.62537 6.3746C9.62537 5.48567 8.8889 4.74921 7.99997 4.74921Z" fill="#1A1C1F"/>
</g>
<defs>
<clipPath id="clip0_2213_5499">
<rect width="16" height="16" fill="white"/>
</clipPath>
</defs>
</svg>

<svg xmlns="http://www.w3.org/2000/svg" width="16" height="16" fill="none"><g clip-path="url(#a)"><path fill="#1A1C1F" fill-rule="evenodd" d="M8 1.498c2.82 0 4.876 2.108 4.876 4.877 0 1.117-.482 2.361-1.422 3.707L8.66 14.147a.77.77 0 0 1-.66.356.77.77 0 0 1-.66-.356l-2.794-4.064c-.94-1.37-1.422-2.59-1.422-3.707 0-2.692 1.98-4.877 4.876-4.877M8 4.75c-.889 0-1.625.737-1.625 1.626S7.11 8 8 8s1.625-.736 1.625-1.625c0-.89-.736-1.626-1.625-1.626" clip-rule="evenodd"/></g><defs><clipPath id="a"><path fill="#fff" d="M0 0h16v16H0z"/></clipPath></defs></svg>
